X:30
T:Morrison's Jig
T:Stick Across the Hob, The
R:jig
Z:id:hn-jig-30
M:6/8
K:Edor
~E3 BEB|EBG AFD|~E3 BAB|dcB AFD|~E3 BEB|EBG AFD|~G3 FGA|dAG FED:|
Eee fee|aee fed|Bee fee|a2g fed|Bee fee|aee fed|gfe d2A|BAG FED|
Bee fee|aee fed|Bee fee|faf def|~g3 gfe|def g2d|edc d2A|BAG FED||
